X: 189
T:Jenny Dang the Weaver
M:4/4
L:1/8
F:http://blackrosetheband.googlepages.com/ABCTUNES.ABC May 2009
S:Angus Sessions Podcast
R:reel
K:D
|:"D"dA (3AAA A3B|ABde f2ef|"G"dBBB BABd|"A"ABde f2ef:||
|:"D"d2fd "G"efge|"D"d2fd "A"e2BA|"D"d2fd "G"efge|"D"aAAA "A"f2ef:||

